img/building.svg

<svg width="92" height="92" viewBox="0 0 92 92" fill="none" xmlns="http://www.w3.org/2000/svg">
<circle cx="46" cy="46" r="45" stroke="#EBC317" stroke-width="2"/>
<g clip-path="url(#clip0_0_1)">
<path d="M63.1418 22.2562C61.4646 22.2562 59.9867 23.1271 59.1372 24.4402C58.2616 22.9942 56.6732 22.0249 54.8629 22.0249C52.7885 22.0249 50.9669 23.3145 50.2252 25.1697C47.9719 25.5172 46.2411 27.4708 46.2411 29.8197C46.2411 31.2938 46.9454 32.7013 48.1264 33.5863L48.5001 33.8673H61.3015L61.6949 33.5349C62.2568 33.0591 62.6754 32.4532 62.9217 31.7798C62.9947 31.7835 63.0678 31.7854 63.1418 31.7854C65.7688 31.7854 67.9059 29.6473 67.9059 27.0204C67.9059 24.3934 65.7688 22.2562 63.1418 22.2562ZM60.2779 30.8255C60.2479 30.907 60.2095 30.9837 60.1645 31.0577H49.5097C49.2137 30.7168 49.0507 30.2832 49.0507 29.8197C49.0507 28.7745 49.9012 27.9241 50.9463 27.9241C51.0146 27.9241 51.0848 27.9279 51.1552 27.9354L52.5178 28.0833L52.6995 26.7244C52.8427 25.6474 53.7737 24.8345 54.8629 24.8345C56.0673 24.8345 57.0459 25.8141 57.0459 27.0176C57.0459 27.1412 57.0356 27.2657 57.015 27.3875L56.6666 29.4357L58.698 28.9955C58.7317 28.988 58.7645 28.9824 58.7982 28.9777C58.8628 28.9683 58.9275 28.9636 58.9911 28.9636C59.7498 28.9636 60.3679 29.5808 60.3679 30.3394C60.3678 30.508 60.3369 30.6718 60.2779 30.8255ZM63.1418 28.9758C63.0754 28.9758 63.0107 28.9721 62.9461 28.9655C62.6286 28.0561 62.0058 27.2882 61.2013 26.7871C61.3156 25.8188 62.1426 25.0658 63.1418 25.0658C64.2198 25.0658 65.0963 25.9423 65.0963 27.0203C65.0963 28.0982 64.2198 28.9758 63.1418 28.9758Z" fill="#EBC317"/>
<path d="M29.4014 39.4775H26.5918V42.2871H29.4014V39.4775Z" fill="#EBC317"/>
<path d="M33.5689 39.4775H30.7593V42.2871H33.5689V39.4775Z" fill="#EBC317"/>
<path d="M29.4014 43.7559H26.5918V46.5655H29.4014V43.7559Z" fill="#EBC317"/>
<path d="M33.5689 43.7559H30.7593V46.5655H33.5689V43.7559Z" fill="#EBC317"/>
<path d="M29.4014 48.0337H26.5918V50.8433H29.4014V48.0337Z" fill="#EBC317"/>
<path d="M33.5689 48.0337H30.7593V50.8433H33.5689V48.0337Z" fill="#EBC317"/>
<path d="M29.4014 52.3105H26.5918V55.1201H29.4014V52.3105Z" fill="#EBC317"/>
<path d="M33.5689 52.3105H30.7593V55.1201H33.5689V52.3105Z" fill="#EBC317"/>
<path d="M29.4014 56.5889H26.5918V59.3985H29.4014V56.5889Z" fill="#EBC317"/>
<path d="M33.5689 56.5889H30.7593V59.3985H33.5689V56.5889Z" fill="#EBC317"/>
<path d="M45.3664 44.5947H39.8409V47.4043H45.3664V44.5947Z" fill="#EBC317"/>
<path d="M45.3664 49.4336H39.8409V52.2432H45.3664V49.4336Z" fill="#EBC317"/>
<path d="M45.3664 54.2729H39.8409V57.0825H45.3664V54.2729Z" fill="#EBC317"/>
<path d="M45.3664 59.1108H39.8409V61.9204H45.3664V59.1108Z" fill="#EBC317"/>
<path d="M70 58.8044V51.0556C70 48.2817 67.743 46.0246 64.969 46.0246H63.3301C60.5561 46.0246 58.2991 48.2817 58.2991 51.0556V58.8044C58.2991 61.3799 60.2451 63.5105 62.7448 63.8008H62.7449V67.1658H49.9611V39.8106H38.1618V34.7749H22V69.9753H69.9504V67.1657H65.5545V63.8007C68.0539 63.5104 70 61.3797 70 58.8044ZM35.3522 67.1657H24.8096V37.5845H35.3522V67.1657ZM47.1514 67.1657H38.1617V42.6202H47.1514V67.1657ZM62.7448 52.4574V60.9472H62.7447C61.8025 60.6897 61.1086 59.8271 61.1086 58.8044V51.0556C61.1086 49.8307 62.105 48.8342 63.33 48.8342H64.9689C66.1938 48.8342 67.1903 49.8307 67.1903 51.0556V58.8044C67.1903 59.8272 66.4965 60.6896 65.5543 60.9472V52.4574H62.7448Z" fill="#EBC317"/>
</g>
<defs>
<clipPath id="clip0_0_1">
<rect width="48" height="48" fill="white" transform="translate(22 22)"/>
</clipPath>
</defs>
</svg>

<svg width="92" height="92" fill="none" xmlns="http://www.w3.org/2000/svg"><circle cx="46" cy="46" r="45" stroke="#EBC317" stroke-width="2"/><g clip-path="url(#a)" fill="#EBC317"><path d="M63.142 22.256c-1.677 0-3.155.871-4.005 2.184a4.996 4.996 0 0 0-4.274-2.415 5.011 5.011 0 0 0-4.638 3.145 4.713 4.713 0 0 0-3.984 4.65c0 1.474.704 2.881 1.885 3.766l.374.281h12.801l.394-.332a4.18 4.18 0 0 0 1.227-1.755 4.77 4.77 0 0 0 4.984-4.76 4.77 4.77 0 0 0-4.764-4.764zm-2.864 8.57a1.33 1.33 0 0 1-.114.232H49.51a1.898 1.898 0 0 1 1.645-3.122l1.363.147.181-1.359a2.188 2.188 0 0 1 2.164-1.89 2.185 2.185 0 0 1 2.152 2.553l-.348 2.049 2.031-.44a1.342 1.342 0 0 1 .293-.032 1.378 1.378 0 0 1 1.287 1.861zm2.864-1.85c-.067 0-.131-.004-.196-.01a4.206 4.206 0 0 0-1.745-2.179 1.956 1.956 0 0 1 1.94-1.721c1.079 0 1.955.876 1.955 1.954a1.957 1.957 0 0 1-1.954 1.956zM29.401 39.477h-2.81v2.81h2.81v-2.81zM33.569 39.477h-2.81v2.81h2.81v-2.81zM29.401 43.756h-2.81v2.81h2.81v-2.81zM33.569 43.756h-2.81v2.81h2.81v-2.81zM29.401 48.034h-2.81v2.81h2.81v-2.81zM33.569 48.034h-2.81v2.81h2.81v-2.81zM29.401 52.31h-2.81v2.81h2.81v-2.81zM33.569 52.31h-2.81v2.81h2.81v-2.81zM29.401 56.589h-2.81v2.81h2.81v-2.81zM33.569 56.589h-2.81v2.81h2.81v-2.81zM45.366 44.595h-5.525v2.81h5.525v-2.81zM45.366 49.434h-5.525v2.81h5.525v-2.81zM45.366 54.273h-5.525v2.81h5.525v-2.81zM45.366 59.11h-5.525v2.81h5.525v-2.81z"/><path d="M70 58.804v-7.748a5.037 5.037 0 0 0-5.031-5.031H63.33a5.037 5.037 0 0 0-5.03 5.03v7.75a5.037 5.037 0 0 0 4.445 4.996v3.365H49.96V39.81h-11.8v-5.036H22v35.2h47.95v-2.81h-4.395v-3.364A5.038 5.038 0 0 0 70 58.804zm-34.648 8.362H24.81V37.585h10.542v29.58zm11.8 0h-8.99V42.62h8.99v24.546zm15.593-14.709v8.49a2.224 2.224 0 0 1-1.636-2.143v-7.748c0-1.225.996-2.222 2.221-2.222h1.639c1.225 0 2.221.997 2.221 2.222v7.748a2.224 2.224 0 0 1-1.636 2.143v-8.49h-2.81z"/></g><defs><clipPath id="a"><path fill="#fff" transform="translate(22 22)" d="M0 0h48v48H0z"/></clipPath></defs></svg>
